public/assets/logo.svg

<svg fill="none" height="84" viewBox="0 0 60 84" width="60" xmlns="http://www.w3.org/2000/svg"><g fill="#000"><path d="m16.435 27.6577c0 .4939 0 1.9755-2.0559 1.9755h-1.6447v-11.4581h1.6926c1.7805 0 1.9961 1.0628 1.9961 1.9755zm-1.3213-10.7983h-4.6547v14.2555h4.6547c2.6108 0 3.6247-.8772 3.6247-3.1372v-8.0602c0-2.2561-.9461-3.0581-3.6247-3.0581z"/><path d="m42.2236 16.8594v31.6047h3.2056v-22.5765h3.3733v-2.9515h-3.3733v-3.1845h4.028v-2.8922z"/><path d="m26.1357 72.7198c0 .9364-.3753 1.13-.9341 1.13-.4272 0-.9142-.1304-.9142-1.13v-65.45759h-3.2854v65.49709c0 2.6037 1.3732 3.9787 3.992 3.9787h.4511c2.6147 0 3.992-1.375 3.992-3.9787v-46.2869h-3.3014z"/><path d="m15.7526 60.7203c.1317 1.0905-.2156 1.3473-.8663 1.4263l-.6866.083-3.2894-26.5236.7265-.0909c.6667-.079 1.01.079 1.1457 1.1853zm-3.8803-27.8394-4.5349.5532 3.992 32.0037 4.5349-.5492c2.547-.3121 3.537-1.6159 3.1937-4.2355l-3.038-24.4967c-.3233-2.5959-1.5608-3.556-4.1437-3.2557"/><path d="m40.7705 73.6443 2.0399.2489 2.016-16.2508 3.7405.4544.1956-1.5844-3.7405-.4543.5589-4.5043 5.1417.6243.1916-1.5251-7.1856-.8732z"/><path d="m33.7486 18.0685h1.6846c1.5968 0 1.8204.9759 1.8204 1.8253v1.296c0 1.2604-.6108 1.9005-1.8204 1.9005h-1.6846zm0 6.3572h1.6846c1.8204 0 1.8204 1.4185 1.8204 1.8847v4.7413h2.0439v-5.1838c0-1.4619-.7984-1.9044-1.3932-2.1138l-1.2415-.4426 1.2614-.324c.511-.1382 1.3613-.5808 1.3613-2.0427v-1.6397c0-1.7384-.7984-2.4496-2.7944-2.4496h-4.7904v14.2239h2.0479z"/><path d="m35.7805 39.0604h-.8543v-3.6705h.8543c.6747 0 .9741.1659.9741 1.1498v1.2959c0 1.0194-.3713 1.2248-.9741 1.2248zm.9741 3.8998v21.4425h3.2255v-21.889c0-1.1537-.3992-1.9755-1.1736-2.4773.5469-.3319 1.1736-1.0234 1.1736-2.4458v-1.6357c0-2.102-1.0499-3.1253-3.2175-3.1253h-5.0619v31.5731h3.2255v-22.6555h.8543c.6308 0 .9741.1936.9741 1.213z"/><path d="m51.896 43.3236v1.0549c-.1916 0-.4431-.0829-1.0938-.6716-.2235-.2015-.4351-.3952-.6826-.5888-.1893-.189-.4152-.3383-.6642-.4388-.2491-.1004-.516-.1501-.7849-.1459h-.0838c-.7306 0-1.1697.3279-1.1697 1.2446v.1383c0 .8653.503 1.1221 1.1058 1.1221h.7505v-.8653h-.6667c-.2994 0-.4351-.0909-.4351-.3477s.1357-.3556.4351-.3556h.0958c.3622.0001.7095.1421.9661.3951l.7345.5532c.7984.6124 1.2336.7902 1.8803.7902h.3992v-2.7342h-1.7086v.8732z"/><path d="m51.3572 39.8348c.3553 0 .5469.1264.5469.3951 0 .2686-.1916.3951-.5469.3951h-2.6028c-.3992 0-.5549-.1383-.5549-.3951 0-.2569.1637-.4149.5549-.4149zm-3.968.3318v.166c0 .8692.467 1.2564 1.3572 1.2564h2.6108c.9182 0 1.3653-.3951 1.3653-1.2683v-.158c0-.8416-.4551-1.2565-1.3653-1.2565h-2.6108c-.8902 0-1.3572.3715-1.3572 1.2604z"/><path d="m49.7843 35.9904c-.079-.1493-.2028-.2709-.3542-.348-.1515-.0771-.3234-.1059-.4921-.0826h-.4352c-.7425 0-1.1097.2884-1.1097 1.1853v.083c0 .9087.459 1.13 1.1097 1.13h.511v-.8179h-.4471c-.2754 0-.3992-.083-.3992-.3319s.1397-.3398.3992-.3398h.5349c.2715 0 .3513.0751.3513.324v.5057h.7984v-.5531c0-.2489.0879-.32.3394-.32h.9062c.2834 0 .4351.1066.4351.3555 0 .249-.1517.3754-.4351.3754h-.7146v.8534h.7984c.6706 0 1.1617-.2489 1.1617-1.1853v-.1422c.0224-.1619.0071-.3268-.0448-.482-.0518-.1551-.1389-.2965-.2545-.4132s-.2567-.2056-.4124-.2601c-.1557-.0544-.3219-.0728-.4859-.0538h-1.014c-.165-.0171-.3308.0255-.4665.1199-.1358.0944-.2324.2343-.272.3938"/><path d="m51.3572 32.794c.3553 0 .5469.1264.5469.3951s-.1916.3951-.5469.3951h-2.6028c-.3992 0-.5549-.1383-.5549-.3951s.1637-.4188.5549-.4188zm-3.968.3358v.166c0 .8653.467 1.2564 1.3572 1.2564h2.6108c.9182 0 1.3653-.3951 1.3653-1.2722v-.1581c0-.8376-.4551-1.2564-1.3653-1.2564h-2.6108c-.8902 0-1.3572.3951-1.3572 1.2643z"/></g><path d="m16.4355 27.6577c0 .4939 0 1.9755-2.0559 1.9755h-1.6447v-11.4581h1.6926c1.7805 0 1.996 1.0628 1.996 1.9755zm-1.3213-10.7983h-4.6547v14.2555h4.6547c2.6107 0 3.6247-.8772 3.6247-3.1372v-8.0602c0-2.2561-.9461-3.0581-3.6247-3.0581z" fill="#54bbab"/><path d="m42.2236 16.8594v31.6047h3.2056v-22.5765h3.3733v-2.9515h-3.3733v-3.1845h4.028v-2.8922z" fill="#e62336"/><path d="m26.1362 72.7198c0 .9364-.3753 1.13-.9342 1.13-.4271 0-.9141-.1304-.9141-1.13v-65.45759h-3.2855v65.49709c0 2.6037 1.3733 3.9787 3.9921 3.9787h.4511c2.6147 0 3.992-1.375 3.992-3.9787v-46.2869h-3.3014z" fill="#e62336"/><path d="m15.7521 60.7203c.1317 1.0905-.2156 1.3473-.8663 1.4263l-.6866.083-3.2894-26.5236.7265-.0909c.6667-.079 1.01.079 1.1457 1.1853zm-3.8803-27.8394-4.53489.5532 3.99199 32.0037 4.535-.5492c2.5469-.3121 3.5369-1.6159 3.1936-4.2355l-3.038-24.4967c-.3233-2.5959-1.5608-3.556-4.1437-3.2557" fill="#e62336"/><path d="m40.77 73.6441 2.0399.2489 2.016-16.2508 3.7405.4544.1956-1.5844-3.7405-.4544.5589-4.5042 5.1417.6242.1916-1.5251-7.1856-.8732z" fill="#54bbab"/><path d="m33.7486 18.0682h1.6846c1.5968 0 1.8204.9759 1.8204 1.8254v1.296c0 1.2604-.6108 1.9004-1.8204 1.9004h-1.6846zm0 6.3573h1.6846c1.8204 0 1.8204 1.4184 1.8204 1.8847v4.7413h2.0439v-5.1839c0-1.4619-.7984-1.9044-1.3932-2.1138l-1.2415-.4425 1.2614-.324c.511-.1383 1.3613-.5808 1.3613-2.0427v-1.6397c0-1.7385-.7984-2.4497-2.7944-2.4497h-4.7904v14.2239h2.0479z" fill="#54bbab"/><path d="m35.7805 39.0604h-.8543v-3.6705h.8543c.6747 0 .9741.1659.9741 1.1498v1.2959c0 1.0194-.3713 1.2248-.9741 1.2248zm.9741 3.8998v21.4425h3.2255v-21.889c0-1.1537-.3992-1.9755-1.1736-2.4773.5469-.3319 1.1736-1.0234 1.1736-2.4458v-1.6357c0-2.102-1.0499-3.1253-3.2175-3.1253h-5.0619v31.5731h3.2255v-22.6555h.8543c.6308 0 .9741.1936.9741 1.213z" fill="#e62336"/><path d="m51.8965 43.3236v1.0549c-.1916 0-.4431-.0829-1.0938-.6716-.2235-.2015-.4351-.3952-.6826-.5888-.1893-.189-.4152-.3383-.6643-.4388-.249-.1004-.5159-.1501-.7848-.1459h-.0839c-.7305 0-1.1696.3279-1.1696 1.2446v.1383c0 .8653.503 1.1221 1.1058 1.1221h.7505v-.8653h-.6667c-.2994 0-.4351-.0909-.4351-.3477s.1357-.3556.4351-.3556h.0958c.3622.0001.7095.1421.9661.3951l.7345.5532c.7984.6124 1.2335.7902 1.8802.7902h.3992v-2.7342h-1.7085v.8732z" fill="#000"/><path d="m51.3567 39.8348c.3553 0 .5469.1264.5469.3951 0 .2686-.1916.3951-.5469.3951h-2.6028c-.3992 0-.5548-.1383-.5548-.3951 0-.2569.1636-.4149.5548-.4149zm-3.968.3318v.166c0 .8692.467 1.2564 1.3573 1.2564h2.6107c.9182 0 1.3653-.3951 1.3653-1.2683v-.158c0-.8416-.4551-1.2565-1.3653-1.2565h-2.6107c-.8903 0-1.3573.3715-1.3573 1.2604z" fill="#000"/><path d="m49.7838 35.9904c-.079-.1493-.2027-.2709-.3542-.348s-.3234-.1059-.4921-.0826h-.4351c-.7426 0-1.1098.2884-1.1098 1.1853v.083c0 .9087.4591 1.13 1.1098 1.13h.5109v-.8179h-.4471c-.2754 0-.3992-.083-.3992-.3319s.1397-.3398.3992-.3398h.535c.2714 0 .3513.0751.3513.324v.5057h.7984v-.5531c0-.2489.0878-.32.3393-.32h.9062c.2834 0 .4351.1066.4351.3555 0 .249-.1517.3754-.4351.3754h-.7146v.8534h.7984c.6707 0 1.1617-.2489 1.1617-1.1853v-.1422c.0224-.1619.0071-.3268-.0448-.482-.0518-.1551-.1389-.2965-.2545-.4132s-.2567-.2056-.4124-.2601c-.1557-.0544-.3219-.0728-.4859-.0538h-1.014c-.165-.0171-.3308.0255-.4665.1199-.1358.0944-.2324.2343-.272.3938" fill="#000"/><path d="m51.3567 32.794c.3553 0 .5469.1264.5469.3951s-.1916.3951-.5469.3951h-2.6028c-.3992 0-.5548-.1383-.5548-.3951s.1636-.4188.5548-.4188zm-3.968.3358v.166c0 .8653.467 1.2564 1.3573 1.2564h2.6107c.9182 0 1.3653-.3951 1.3653-1.2722v-.1581c0-.8376-.4551-1.2564-1.3653-1.2564h-2.6107c-.8903 0-1.3573.3951-1.3573 1.2643z" fill="#000"/></svg>

<svg width="60" height="84" viewBox="0 0 60 84" fill="none" xmlns="http://www.w3.org/2000/svg">
<path d="M16.435 27.6577C16.435 28.1516 16.435 29.6332 14.3791 29.6332H12.7344V18.1751H14.427C16.2075 18.1751 16.4231 19.2379 16.4231 20.1506L16.435 27.6577ZM15.1137 16.8594H10.459V31.1149H15.1137C17.7245 31.1149 18.7384 30.2377 18.7384 27.9777V19.9175C18.7384 17.6614 17.7923 16.8594 15.1137 16.8594Z" fill="black"/>
<path d="M42.2236 16.8594V48.4641H45.4292V25.8876H48.8025V22.9361H45.4292V19.7516H49.4572V16.8594H42.2236Z" fill="black"/>
<path d="M26.1357 72.7198C26.1357 73.6562 25.7604 73.8498 25.2016 73.8498C24.7744 73.8498 24.2874 73.7194 24.2874 72.7198V7.26221H21.002V72.7593C21.002 75.363 22.3752 76.738 24.994 76.738H25.4451C28.0598 76.738 29.4371 75.363 29.4371 72.7593V26.4724H26.1357V72.7198Z" fill="black"/>
<path d="M15.7526 60.7203C15.8843 61.8108 15.537 62.0676 14.8863 62.1466L14.1997 62.2296L10.9103 35.706L11.6368 35.6151C12.3035 35.5361 12.6468 35.6941 12.7825 36.8004L15.7526 60.7203ZM11.8723 32.8809L7.3374 33.4341L11.3294 65.4378L15.8643 64.8886C18.4113 64.5765 19.4013 63.2727 19.058 60.6531L16.02 36.1564C15.6967 33.5605 14.4592 32.6004 11.8763 32.9007" fill="black"/>
<path d="M40.7705 73.6443L42.8104 73.8932L44.8264 57.6424L48.5669 58.0968L48.7625 56.5124L45.022 56.0581L45.5809 51.5538L50.7226 52.1781L50.9142 50.653L43.7286 49.7798L40.7705 73.6443Z" fill="black"/>
<path d="M33.7486 18.0685H35.4332C37.03 18.0685 37.2536 19.0444 37.2536 19.8938V21.1898C37.2536 22.4502 36.6428 23.0903 35.4332 23.0903H33.7486V18.0685ZM33.7486 24.4257H35.4332C37.2536 24.4257 37.2536 25.8442 37.2536 26.3104V31.0517H39.2975V25.8679C39.2975 24.406 38.4991 23.9635 37.9043 23.7541L36.6628 23.3115L37.9242 22.9875C38.4352 22.8493 39.2855 22.4067 39.2855 20.9448V19.3051C39.2855 17.5667 38.4871 16.8555 36.4911 16.8555H31.7007V31.0794H33.7486V24.4257Z" fill="black"/>
<path d="M35.7805 39.0604H34.9262V35.3899H35.7805C36.4552 35.3899 36.7546 35.5558 36.7546 36.5397V37.8356C36.7546 38.855 36.3833 39.0604 35.7805 39.0604ZM36.7546 42.9602V64.4027H39.9801V42.5137C39.9801 41.36 39.5809 40.5382 38.8065 40.0364C39.3534 39.7045 39.9801 39.013 39.9801 37.5906V35.9549C39.9801 33.8529 38.9302 32.8296 36.7626 32.8296H31.7007V64.4027H34.9262V41.7472H35.7805C36.4113 41.7472 36.7546 41.9408 36.7546 42.9602Z" fill="black"/>
<path d="M51.896 43.3236V44.3785C51.7044 44.3785 51.4529 44.2956 50.8022 43.7069C50.5787 43.5054 50.3671 43.3117 50.1196 43.1181C49.9303 42.9291 49.7044 42.7798 49.4554 42.6793C49.2063 42.5789 48.9394 42.5292 48.6705 42.5334H48.5867C47.8561 42.5334 47.417 42.8613 47.417 43.778V43.9163C47.417 44.7816 47.92 45.0384 48.5228 45.0384H49.2733V44.1731H48.6066C48.3072 44.1731 48.1715 44.0822 48.1715 43.8254C48.1715 43.5686 48.3072 43.4698 48.6066 43.4698H48.7024C49.0646 43.4699 49.4119 43.6119 49.6685 43.8649L50.403 44.4181C51.2014 45.0305 51.6366 45.2083 52.2833 45.2083H52.6825V42.4741H50.9739V43.3473L51.896 43.3236Z" fill="black"/>
<path d="M51.3572 39.8348C51.7125 39.8348 51.9041 39.9612 51.9041 40.2299C51.9041 40.4985 51.7125 40.625 51.3572 40.625H48.7544C48.3552 40.625 48.1995 40.4867 48.1995 40.2299C48.1995 39.973 48.3632 39.815 48.7544 39.815L51.3572 39.8348ZM47.3892 40.1666V40.3326C47.3892 41.2018 47.8562 41.589 48.7464 41.589H51.3572C52.2754 41.589 52.7225 41.1939 52.7225 40.3207V40.1627C52.7225 39.3211 52.2674 38.9062 51.3572 38.9062H48.7464C47.8562 38.9062 47.3892 39.2777 47.3892 40.1666Z" fill="black"/>
<path d="M49.7843 35.9904C49.7053 35.8411 49.5815 35.7195 49.4301 35.6424C49.2786 35.5653 49.1067 35.5365 48.938 35.5598H48.5028C47.7603 35.5598 47.3931 35.8482 47.3931 36.7451V36.8281C47.3931 37.7368 47.8521 37.9581 48.5028 37.9581H49.0138V37.1402H48.5667C48.2913 37.1402 48.1675 37.0572 48.1675 36.8083C48.1675 36.5594 48.3072 36.4685 48.5667 36.4685H49.1016C49.3731 36.4685 49.4529 36.5436 49.4529 36.7925V37.2982H50.2513V36.7451C50.2513 36.4962 50.3392 36.4251 50.5907 36.4251H51.4969C51.7803 36.4251 51.932 36.5317 51.932 36.7806C51.932 37.0296 51.7803 37.156 51.4969 37.156H50.7823V38.0094H51.5807C52.2513 38.0094 52.7424 37.7605 52.7424 36.8241V36.6819C52.7648 36.52 52.7495 36.3551 52.6976 36.1999C52.6458 36.0448 52.5587 35.9034 52.4431 35.7867C52.3275 35.67 52.1864 35.5811 52.0307 35.5266C51.875 35.4722 51.7088 35.4538 51.5448 35.4728H50.5308C50.3658 35.4557 50.2 35.4983 50.0643 35.5927C49.9285 35.6871 49.8319 35.827 49.7923 35.9865" fill="black"/>
<path d="M51.3572 32.794C51.7125 32.794 51.9041 32.9204 51.9041 33.1891C51.9041 33.4578 51.7125 33.5842 51.3572 33.5842H48.7544C48.3552 33.5842 48.1995 33.4459 48.1995 33.1891C48.1995 32.9323 48.3632 32.7703 48.7544 32.7703L51.3572 32.794ZM47.3892 33.1298V33.2958C47.3892 34.1611 47.8562 34.5522 48.7464 34.5522H51.3572C52.2754 34.5522 52.7225 34.1571 52.7225 33.28V33.1219C52.7225 32.2843 52.2674 31.8655 51.3572 31.8655H48.7464C47.8562 31.8655 47.3892 32.2606 47.3892 33.1298Z" fill="black"/>
<path d="M16.4355 27.6577C16.4355 28.1516 16.4355 29.6332 14.3796 29.6332H12.7349V18.1751H14.4275C16.208 18.1751 16.4235 19.2379 16.4235 20.1506L16.4355 27.6577ZM15.1142 16.8594H10.4595V31.1149H15.1142C17.7249 31.1149 18.7389 30.2377 18.7389 27.9777V19.9175C18.7389 17.6614 17.7928 16.8594 15.1142 16.8594Z" fill="#54BBAB"/>
<path d="M42.2236 16.8594V48.4641H45.4292V25.8876H48.8025V22.9361H45.4292V19.7516H49.4572V16.8594H42.2236Z" fill="#E62336"/>
<path d="M26.1362 72.7198C26.1362 73.6562 25.7609 73.8498 25.202 73.8498C24.7749 73.8498 24.2879 73.7194 24.2879 72.7198V7.26221H21.0024V72.7593C21.0024 75.363 22.3757 76.738 24.9945 76.738H25.4456C28.0603 76.738 29.4376 75.363 29.4376 72.7593V26.4724H26.1362V72.7198Z" fill="#E62336"/>
<path d="M15.7521 60.7203C15.8838 61.8108 15.5365 62.0676 14.8858 62.1466L14.1992 62.2296L10.9098 35.706L11.6363 35.6151C12.303 35.5361 12.6463 35.6941 12.782 36.8004L15.7521 60.7203ZM11.8718 32.8809L7.33691 33.4341L11.3289 65.4378L15.8639 64.8886C18.4108 64.5765 19.4008 63.2727 19.0575 60.6531L16.0195 36.1564C15.6962 33.5605 14.4587 32.6004 11.8758 32.9007" fill="#E62336"/>
<path d="M40.77 73.6441L42.8099 73.893L44.8259 57.6422L48.5664 58.0966L48.762 56.5122L45.0215 56.0578L45.5804 51.5536L50.7221 52.1778L50.9137 50.6527L43.7281 49.7795L40.77 73.6441Z" fill="#54BBAB"/>
<path d="M33.7486 18.0682H35.4332C37.03 18.0682 37.2536 19.0441 37.2536 19.8936V21.1896C37.2536 22.45 36.6428 23.09 35.4332 23.09H33.7486V18.0682ZM33.7486 24.4255H35.4332C37.2536 24.4255 37.2536 25.8439 37.2536 26.3102V31.0515H39.2975V25.8676C39.2975 24.4057 38.4991 23.9632 37.9043 23.7538L36.6628 23.3113L37.9242 22.9873C38.4352 22.849 39.2855 22.4065 39.2855 20.9446V19.3049C39.2855 17.5664 38.4871 16.8552 36.4911 16.8552H31.7007V31.0791H33.7486V24.4255Z" fill="#54BBAB"/>
<path d="M35.7805 39.0604H34.9262V35.3899H35.7805C36.4552 35.3899 36.7546 35.5558 36.7546 36.5397V37.8356C36.7546 38.855 36.3833 39.0604 35.7805 39.0604ZM36.7546 42.9602V64.4027H39.9801V42.5137C39.9801 41.36 39.5809 40.5382 38.8065 40.0364C39.3534 39.7045 39.9801 39.013 39.9801 37.5906V35.9549C39.9801 33.8529 38.9302 32.8296 36.7626 32.8296H31.7007V64.4027H34.9262V41.7472H35.7805C36.4113 41.7472 36.7546 41.9408 36.7546 42.9602Z" fill="#E62336"/>
<path d="M51.8965 43.3236V44.3785C51.7049 44.3785 51.4534 44.2956 50.8027 43.7069C50.5792 43.5054 50.3676 43.3117 50.1201 43.1181C49.9308 42.9291 49.7049 42.7798 49.4558 42.6793C49.2068 42.5789 48.9399 42.5292 48.671 42.5334H48.5871C47.8566 42.5334 47.4175 42.8613 47.4175 43.778V43.9163C47.4175 44.7816 47.9205 45.0384 48.5233 45.0384H49.2738V44.1731H48.6071C48.3077 44.1731 48.172 44.0822 48.172 43.8254C48.172 43.5686 48.3077 43.4698 48.6071 43.4698H48.7029C49.0651 43.4699 49.4124 43.6119 49.669 43.8649L50.4035 44.4181C51.2019 45.0305 51.637 45.2083 52.2837 45.2083H52.6829V42.4741H50.9744V43.3473L51.8965 43.3236Z" fill="black"/>
<path d="M51.3567 39.8348C51.712 39.8348 51.9036 39.9612 51.9036 40.2299C51.9036 40.4985 51.712 40.625 51.3567 40.625H48.7539C48.3547 40.625 48.1991 40.4867 48.1991 40.2299C48.1991 39.973 48.3627 39.815 48.7539 39.815L51.3567 39.8348ZM47.3887 40.1666V40.3326C47.3887 41.2018 47.8557 41.589 48.746 41.589H51.3567C52.2749 41.589 52.722 41.1939 52.722 40.3207V40.1627C52.722 39.3211 52.2669 38.9062 51.3567 38.9062H48.746C47.8557 38.9062 47.3887 39.2777 47.3887 40.1666Z" fill="black"/>
<path d="M49.7838 35.9904C49.7048 35.8411 49.5811 35.7195 49.4296 35.6424C49.2781 35.5653 49.1062 35.5365 48.9375 35.5598H48.5024C47.7598 35.5598 47.3926 35.8482 47.3926 36.7451V36.8281C47.3926 37.7368 47.8517 37.9581 48.5024 37.9581H49.0133V37.1402H48.5662C48.2908 37.1402 48.167 37.0572 48.167 36.8083C48.167 36.5594 48.3067 36.4685 48.5662 36.4685H49.1012C49.3726 36.4685 49.4525 36.5436 49.4525 36.7925V37.2982H50.2509V36.7451C50.2509 36.4962 50.3387 36.4251 50.5902 36.4251H51.4964C51.7798 36.4251 51.9315 36.5317 51.9315 36.7806C51.9315 37.0296 51.7798 37.156 51.4964 37.156H50.7818V38.0094H51.5802C52.2509 38.0094 52.7419 37.7605 52.7419 36.8241V36.6819C52.7643 36.52 52.749 36.3551 52.6971 36.1999C52.6453 36.0448 52.5582 35.9034 52.4426 35.7867C52.327 35.67 52.1859 35.5811 52.0302 35.5266C51.8745 35.4722 51.7083 35.4538 51.5443 35.4728H50.5303C50.3653 35.4557 50.1995 35.4983 50.0638 35.5927C49.928 35.6871 49.8314 35.827 49.7918 35.9865" fill="black"/>
<path d="M51.3567 32.794C51.712 32.794 51.9036 32.9204 51.9036 33.1891C51.9036 33.4578 51.712 33.5842 51.3567 33.5842H48.7539C48.3547 33.5842 48.1991 33.4459 48.1991 33.1891C48.1991 32.9323 48.3627 32.7703 48.7539 32.7703L51.3567 32.794ZM47.3887 33.1298V33.2958C47.3887 34.1611 47.8557 34.5522 48.746 34.5522H51.3567C52.2749 34.5522 52.722 34.1571 52.722 33.28V33.1219C52.722 32.2843 52.2669 31.8655 51.3567 31.8655H48.746C47.8557 31.8655 47.3887 32.2606 47.3887 33.1298Z" fill="black"/>
</svg>
